X:124
M:C|
L:1/8
K:E Minor
e|geBA GFEg|fdAG FEDf|geBA GFEe|dBAF BEEe|geBA GFEg|
fdAG FEDf|ebfa efde|BdAF BE~E||

